packages/ckeditor5-icons/theme/icons/minimize.svg

<svg viewBox="0 0 20 20" xmlns="http://www.w3.org/2000/svg">
<path d="M11.4502 9.30428C11.036 9.30428 10.7002 8.96849 10.7002 8.55428V3.35473C10.7002 2.94052 11.036 2.60473 11.4502 2.60473C11.8645 2.60473 12.2002 2.94052 12.2002 3.35473V6.74362L16.2232 2.72065C16.5161 2.42775 16.991 2.42775 17.2839 2.72065C17.5768 3.01354 17.5768 3.48841 17.2839 3.78131L13.2609 7.80428H16.6498C17.064 7.80428 17.3998 8.14006 17.3998 8.55428C17.3998 8.96849 17.064 9.30428 16.6498 9.30428L11.4502 9.30428Z"/>
<path d="M8.55379 10.7011C8.968 10.7011 9.30379 11.0368 9.30379 11.4511V16.6506C9.30379 17.0648 8.968 17.4006 8.55379 17.4006C8.13958 17.4006 7.80379 17.0648 7.80379 16.6506V13.2617L3.78082 17.2847C3.48793 17.5776 3.01305 17.5776 2.72016 17.2847C2.42726 16.9918 2.42726 16.5169 2.72016 16.224L6.74313 12.2011H3.35424C2.94003 12.2011 2.60424 11.8653 2.60424 11.4511C2.60424 11.0368 2.94003 10.7011 3.35424 10.7011L8.55379 10.7011Z"/>
</svg>

<svg xmlns="http://www.w3.org/2000/svg" viewBox="0 0 20 20"><path d="M11.45 9.304a.75.75 0 0 1-.75-.75v-5.2a.75.75 0 0 1 1.5 0v3.39l4.023-4.023a.75.75 0 0 1 1.06 1.06l-4.022 4.023h3.389a.75.75 0 0 1 0 1.5zm-2.896 1.397a.75.75 0 0 1 .75.75v5.2a.75.75 0 0 1-1.5 0v-3.39L3.78 17.286a.75.75 0 1 1-1.06-1.061l4.022-4.023H3.354a.75.75 0 0 1 0-1.5z"/></svg>
